!!!!SEGMENT: Distler_Jahrkreis_38_Kyrie-Gott-Vater-in-Ewigkeit.krn
!!!COM: Distler, Hugo
!!!CDT: 1908-1942
!!!OPR@@DE: Der Jahrkreis
!!!OPR@EN: The Year Cycle
!!!OTL@@DE: Kyrie, Gott Vater in Ewigkeit
!!!OTL@EN: Kyrie, Lord, Father, eternal God
!!!OPS: 5
!!!ONM: 38
**kern	**text	**kern	**text	**kern	**text
*part3	*part3	*part2	*part2	*part1	*part1
*staff3	*staff3	*staff2	*staff2	*staff1	*staff1
*Ibass	*	*Ialto	*	*Isoprn	*
*clefF4	*	*clefG2	*	*clefG2	*
*k[]	*	*k[]	*	*k[]	*
*MM120	*	*MM120	*	*MM120	*
*M4/4	*	*M4/4	*	*M4/4	*
=1	=1	=1	=1	=1	=1
1r	.	1r	.	2g	Ky-
.	.	.	.	(4a	ri-
.	.	.	.	4b)	.
=2	=2	=2	=2	=2	=2
1r	.	1r	.	2b,	e,
.	.	.	.	2a	Gott
=3	=3	=3	=3	=3	=3
1r	.	4r	.	2cc	Va-
.	.	4e	Gott	.	.
.	.	8f	Va-	8cc	ter
.	.	4f	ter	8cc	in
.	.	.	.	([4b	E-
.	.	8f	in	.	.
=4	=4	=4	=4	=4	=4
2r	.	(4.e	E-	8bL]	.
.	.	.	.	8aJ	.
.	.	.	.	4g	.
.	.	8d	.	.	.
4r	.	4c)	.	4a)	.
4A	Gott	4d	wig-	4a	wig-
=5	=5	=5	=5	=5	=5
4c	Va-	4e,	keit,	1g	keit,
8c	ter	4.e	gross	.	.
8c	in	.	.	.	.
([2B	E-	.	.	.	.
.	.	8e	ist	.	.
.	.	8d	dein'	.	.
.	.	8e	Barm-	.	.
!!LO:LB:g=original
=6	=6	=6	=6	=6	=6
4B]	.	4c	her-	1r	.
2A)	.	4c	zig-	.	.
.	.	4B,	keit,	.	.
4G	wig-	8e	dein	.	.
.	.	8e	Barm-	.	.
=7	=7	=7	=7	=7	=7
2A	keit,	(4f	her-	4.a	gross
.	.	4.e	.	.	.
.	.	.	.	8a	ist
2r	.	.	.	8a	dein'
.	.	8c	.	8g	Barm-
.	.	4d)	.	[4f	her-
=8	=8	=8	=8	=8	=8
4r	.	4B	zig-	4f]	.
8C	al-	4A,	keit,	4e	zig-
8C	ler	.	.	.	.
4.G	Ding'	8A	al-	4d,	keit,
.	.	8A	ler	.	.
.	.	[4d	Ding'	8d	al-
8F	ein	.	.	8d	ler
!!LO:LB:g=original
=9	=9	=9	=9	=9	=9
4E	Schoep-	8d]	.	4.a	Ding'
.	.	8e	ein	.	.
4D	fer,	(4.f#	Schoep-	.	.
.	.	.	.	8g	ein
4r	.	.	.	4a	Schoep-
.	.	8e)	.	.	.
8D	al-	4d	fer	4b	fer
8D	ler	.	.	.	.
=10	=10	=10	=10	=10	=10
4.A	Ding	(8eL	und	4cc	und
.	.	8f#J)	.	.	.
.	.	4g	Re-	4b	Re-
8G	ein	.	.	.	.
4F	Schoep-	[2a	gie-	(4a	gie-
4E	fer	.	.	[4g	.
=11	=11	=11	=11	=11	=11
8D	und	2a]	.	4g]	.
8C	Re-	.	.	.	.
4D	gie-	.	.	4f#)	.
2G	rer.	2g,	rer.	2g,	rer.
=12	=12	=12	=12	=12	=12
4r	.	4e	E-	(2g	E-
4E	E-	(2e	le-	.	.
(4.A	le-	.	.	4fn)	.
.	.	4d)	.	([4a	le-
8GL	.	.	.	.	.
=13	=13	=13	=13	=13	=13
8F	.	2B	i-	8aL]	.
8EJ)	.	.	.	8bJ)	.
4D	i-	.	.	4a	i-
*	*	*^	*	*	*
2E	son!	(4A	(4A	son!	2e	son!
.	.	4B)	4G#)	.	.	.
*	*	*v	*v	*	*	*
!!LO:LB:g=original
=14	=14	=14	=14	=14	=14
*M3/2	*	*M3/2	*	*M3/2	*
1.r	.	1.r	.	(2e	Chris-
.	.	.	.	2d)	.
.	.	.	.	4a	ste,
.	.	.	.	8a	al-
.	.	.	.	8a	ler
=15	=15	=15	=15	=15	=15
1.r	.	(2c	Chri-	4a	Welt
.	.	.	.	4.a,	Trost,
.	.	2A)	.	.	.
.	.	.	.	8cc	uns
.	.	.	.	4cc	Suen-
.	.	4e,	ste,	8b	der
.	.	.	.	8a	al-
.	.	8e	al-	4g	lein
.	.	8e	ler	.	.
=16	=16	=16	=16	=16	=16
1.r	.	4e	Welt	4a	hast'
*	*	*	*	*^	*
.	.	4.e,	Trost,	4a	4a	er-
.	.	.	.	2.b	2.e	loest.
.	.	8g	uns	.	.	.
.	.	4g	Suen-	.	.	.
.	.	8f	der	.	.	.
.	.	8f	al-	.	.	.
*	*	*	*	*v	*v	*
.	.	4e	lein	4r	.
!!LO:LB:g=original
=17	=17	=17	=17	=17	=17
1.r	.	4d	hast'	4r	.
.	.	4c	er-	4e	O
.	.	2e	loest.	(4.g	Je-
.	.	.	.	16aLL	.
.	.	.	.	16bJJ)	.
.	.	4r	.	2a	.
.	.	4A	O	.	.
=18	=18	=18	=18	=18	=18
1.r	.	(4.d	Je-	4r	.
.	.	.	.	4e	o
.	.	16eLL	.	.	.
.	.	16fJJ)	.	.	.
.	.	4e	su,	4g	Je-
.	.	8f	Got-	4a	su,
.	.	8d	tes	.	.
.	.	4a,	Sohn,	4cc	Got-
.	.	8g	un-	4cc	tes
.	.	8g	ser	.	.
=19	=19	=19	=19	=19	=19
1.r	.	(4f	Mitt-	4cc,	Sohn,
.	.	4e)	.	8cc	un-
.	.	.	.	8cc	ser
.	.	4d,	ler,	(4.b	Mitt-
.	.	4.g	un-	.	.
.	.	.	.	8a	.
.	.	.	.	4g)	.
.	.	8g	ser	.	.
.	.	(4f	Mitt-	4a,	ler,
!!LO:LB:g=original
=20-	=20-	=20-	=20-	=20-	=20-
1.r	.	4.e	.	8cc	un-
.	.	.	.	8cc	ser
.	.	.	.	(4.b	Mitt-
.	.	8d	.	.	.
.	.	4c	.	.	.
.	.	.	.	8a	.
.	.	2d)	.	4g	.
.	.	.	.	2a)	.
.	.	4e,	ler	.	.
=21	=21	=21	=21	=21	=21
*M5/4	*	*M5/4	*	*M5/4	*
4%5r	.	8e	bist'	4g,	ler
.	.	8e	in	.	.
.	.	4d	dem	4g	bist'
.	.	4f	hoech-	4a	in
.	.	2e	sten	4g	dem
.	.	.	.	([4f	hoech-
=22	=22	=22	=22	=22	=22
*M4/4	*	*M4/4	*	*M4/4	*
1r	.	4d,	Thron,	4f]	.
.	.	8d	in	8eL	.
.	.	8d	dem	8dJ	.
.	.	4d	hoech-	4e)	.
.	.	4c#	sten	4e	sten
!!LO:LB:g=original
=23	=23	=23	=23	=23	=23
*M6/4	*	*M6/4	*	*M6/4	*
1.r	.	4d,	Thron.	4d,	Thron.
.	.	4B-	Zu	4d	Zu
.	.	4A	dir	2a	dir
.	.	4f	schrei'n	.	.
.	.	4.e	wir	4a	schrei'n
.	.	.	.	[4a	wir
.	.	8d	aus	.	.
=24	=24	=24	=24	=24	=24
1r	.	(8eL	Her-	8a]	.
.	.	8gJ)	.	8b	aus
.	.	8e	zens	8cc	Her-
.	.	8d	Be-	8b	zens
.	.	2e,	gier.	4a	Be-
.	.	.	.	4g,	gier.
4r	.	2e	E-	(2g	E-
4E	E-	.	.	.	.
=25	=25	=25	=25	=25	=25
(4.A	le-	(4e	le-	4f)	.
.	.	4d)	.	(4.a	le-
8GL	.	.	.	.	.
8F	.	2B	i-	.	.
8EJ)	.	.	.	8b)	.
4D	i-	.	.	4a	i-
*	*	*^	*	*	*
2E	son!	(4A	(4A	son!	2e	son!
.	.	4B)	4G#)	.	.	.
*	*	*v	*v	*	*	*
!!LO:LB:g=original
=26||	=26	=26||	=26	=26||	=26
*M4/4	*	*M4/4	*	*M4/4	*
2B	Ky-	2d	Ky-	2.b	Ky-
2A	ri-	2e	ri-	.	.
.	.	.	.	4cc	ri-
=27	=27	=27	=27	=27	=27
2G,	e,	2.g,	e,	2dd,	e,
2B	Ky-	.	.	4b	Gott
.	.	[4f#	Ky-	([4dd	hei-
=28	=28	=28	=28	=28	=28
4A	ri-	4f#]	.	4dd]	.
4G,	e,	4g	ri-	4ee	.
4F	Gott	8a,	e,	4.cc	.
.	.	8a	Gott	.	.
[4C	hei-	(8gL	hei-	.	.
.	.	8f#J)	.	8bL	.
=29	=29	=29	=29	=29	=29
4C]	.	8e	li-	8a	.
.	.	8d	ger	8gJ	.
4C	li-	(4.e	Geist,	4.a)	.
2E	ger	.	.	.	.
.	.	8f#L	.	8a	li-
.	.	8g	.	4a	ger
.	.	8aJ	.	.	.
=30	=30	=30	=30	=30	=30
1G,	Geist,	1b),	.	1g,	Geist,
=31	=31	=31	=31	=31	=31
1E	troest',	1g	troest',	1b	troest',
=32	=32	=32	=32	=32	=32
2C	staerk'	2e	staerk',	2cc	staerk'
2G	uns	4.g	uns	4dd	uns
.	.	.	.	4b	im
.	.	8g	im	.	.
!!LO:LB:g=original
=33	=33	=33	=33	=33	=33
4G	im	8a	rech-	(4.dd	Glau-
.	.	8g	ten	.	.
2D	Glau-	2f#	Glau-	.	.
.	.	.	.	8cc)	.
.	.	.	.	4b	ben
4E	ben	4e	ben	[4a	al-
=34	=34	=34	=34	=34	=34
4F	al-	4c	al-	4a]	.
4F	ler-	4d	ler-	4a	ler-
4C,	meist,	2e,	meist,	2g	meist,
[4c	dass	.	.	.	.
=35	=35	=35	=35	=35	=35
8c]	.	4.a	dass	2r	.
8c	wir	.	.	.	.
4c	am	.	.	.	.
.	.	8a	wir	.	.
4B-	letz-	4g	am	8d	dass
.	.	.	.	8d	wir
4d	ten	[4f	letz-	4a	froeh-
=36	=36	=36	=36	=36	=36
2A	End	4f]	.	8a	lich
.	.	.	.	8g	uns
.	.	4e	ten	2a	schei-
2r	.	4d,	End	.	.
.	.	[4d	fröeh-	4a,	den
=37	=37	=37	=37	=37	=37
2r	.	4d]	.	8a	dass
.	.	.	.	8a	wir
.	.	4a	lich	4cc	froeh-
4r	.	4g	uns	8dd	lich
.	.	.	.	8dd	uns
4D	froeh-	4a	schei-	4a	schei-
!!LO:LB:g=original
=38	=38	=38	=38	=38	=38
4.A	lich	8e	den	8a	den
.	.	8f	aus	8g	aus
.	.	8d	die-	8a	die-
8G	uns	8c	sem	8b	sem
4A	schei-	(4e	E-	([2cc	E-
8A	den	8fL	.	.	.
8A	aus	8gJ	.	.	.
=39	=39	=39	=39	=39	=39
4F	die-	4a)	.	4cc]	.
4C	sem	(2g	len-	4b)	.
4D	E-	.	.	2a	len-
4D	len-	4f#)	.	.	.
=40	=40	=40	=40	=40	=40
2G	de.	2g,	de.	2g,	de.
4r	.	2e	E-	(2g	E-
4E	E-	.	.	.	.
=41	=41	=41	=41	=41	=41
(4.A	le-	(4e	le-	4f)	.
.	.	4d)	.	(4.a	le-
8GL	.	.	.	.	.
8F	.	2B	i-	.	.
8EJ)	.	.	.	8b)	.
4D	i-	.	.	4a	i-
=42	=42	=42	=42	=42	=42
*	*	*^	*	*	*
1E	son!	(2A	(2A	son!	1e	son!
.	.	2B)	2G#)	.	.	.
*	*	*v	*v	*	*	*
==	==	==	==	==	==
*-	*-	*-	*-	*-	*-
!!!verovio: condense auto
!!!YOR: Bärenreiter-Ausgabe 676
!!!YOY: 1933
!!!EFL: 38/52
!!!URL-github: https://github.com/LucasHofmann/distler/blob/main/Jahrkreis/Distler_Jahrkreis_38_Kyrie-Gott-Vater-in-Ewigkeit.krn
!!!URL-pdf: https://imslp.eu/files/imglnks/euimg/7/7d/IMSLP834545-PMLP518834-5-jahrkreis-EA--original-paper-600dpi.pdf#page=73 First edition, Kassel: Bärenreiter, 1933. Plate BA 676.
!!!URL-imslp: https://imslp.org/wiki/Der_Jahrkreis,_Op.5_(Distler,_Hugo)#IMSLP834545
!!!URL-youtube: https://www.youtube.com/watch?v=MJ2NeViYRWg Ensemble Nobiles
!!!system-decoration: [(s1,s2,s3)]
!!!ENC: Lucas Hofmann
!!!END: 2023/12/03
!!!title: @{OPR@@DE}, Op. @{OPS}, Nr. @{ONM}. <i>@{OTL@@DE}</i>
